nextcloudappstore/core/static/assets/img/icons/footer/note-text.svg

<svg width="20" height="20" fill="none" style="-webkit-print-color-adjust:exact" version="1.1" viewBox="0 0 20 20" xmlns="http://www.w3.org/2000/svg"><g rx="0" ry="0" fill="#000"><g class="fills"><path rx="0" ry="0" d="m11.667 8.333h4.583l-4.583-4.583v4.583zm-7.5-5.833h8.333l5 5v8.333c0 0.921-0.746 1.667-1.667 1.667h-11.666c-0.925 0-1.667-0.75-1.667-1.667v-11.666c0-0.925 0.742-1.667 1.667-1.667zm0 7.5v1.667h11.666v-1.667h-11.666zm0 3.333v1.667h7.5v-1.667h-7.5z" fill="#007bbd"/></g></g></svg>

<svg xmlns:xlink="http://www.w3.org/1999/xlink" width="20" xmlns="http://www.w3.org/2000/svg" height="20" id="screenshot-db15cf86-6f9e-8025-8002-bbab9ed697c3" viewBox="0 0 20 20" style="-webkit-print-color-adjust: exact;" fill="none" version="1.1"><g id="shape-db15cf86-6f9e-8025-8002-bbab9ed697c3" rx="0" ry="0" style="fill: rgb(0, 0, 0);"><g id="shape-db15cf86-6f9e-8025-8002-bbab9ed6fe10"><g class="fills" id="fills-db15cf86-6f9e-8025-8002-bbab9ed6fe10"><path rx="0" ry="0" d="M11.667,8.333L16.250,8.333L11.667,3.750L11.667,8.333ZM4.167,2.500L12.500,2.500L17.500,7.500L17.500,15.833C17.500,16.754,16.754,17.500,15.833,17.500L4.167,17.500C3.242,17.500,2.500,16.750,2.500,15.833L2.500,4.167C2.500,3.242,3.242,2.500,4.167,2.500ZM4.167,10.000L4.167,11.667L15.833,11.667L15.833,10.000L4.167,10.000ZM4.167,13.333L4.167,15.000L11.667,15.000L11.667,13.333L4.167,13.333ZZ" style="fill: rgb(0, 123, 189); fill-opacity: 1;"/></g></g></g></svg>
